facebook_circle.svg

<svg enable-background="new -179 181 200 200" height="200" viewBox="-179 181 200 200" width="200" xmlns="http://www.w3.org/2000/svg"><path d="m-79 181c-55 0-100 45-100 100s45 100 100 100 100-45 100-100-45-100-100-100m29 59.5h-14c-3 0-5.5 3-5.5 5v14.5h19.5c-1 11-2.5 21-2.5 21h-17.5v62.5h-26v-62.5h-12.5v-21h12.5v-17.5c0-3-.5-24.5 26.5-24.5h19v22.5z"/></svg>

<svg version="1.1" class="social_facebook_circle" xmlns="http://www.w3.org/2000/svg" xmlns:xlink="http://www.w3.org/1999/xlink"
     width="200" height="200" x="0px" y="0px" viewBox="-179 181 200 200" style="enable-background:new -179 181 200 200;" xml:space="preserve">
<path d="M-79,181c-55,0-100,45-100,100s45,100,100,100S21,336,21,281S-24,181-79,181 M-50,240.5h-14c-3,0-5.5,3-5.5,5V260
    H-50c-1,11-2.5,21-2.5,21H-70v62.5h-26V281h-12.5v-21H-96v-17.5c0-3-0.5-24.5,26.5-24.5h19v22.5L-50,240.5L-50,240.5z"/>
</svg>
